X:1
T:Josiah, 76.76.77.76
T:Josiah, 76.76.77.76
T:William Arnold (1768-1832)
T:Public Domain Courtesy of the Cyber Hymnal™
C:William Arnold (1768-1832)
Z:Public Domain
Z:Courtesy of the Cyber Hymnal™
%%score ( 1 2 ) ( 3 4 )
L:1/8
Q:1/4=93
M:4/4
K:D
V:1 treble 
V:2 treble 
V:3 bass 
V:4 bass 
V:1
 [Fd]2 [Dd]2 (cB) (AG) | [DF]2 [CE]2 D3 [A,E] | [A,F]2 [D^G]2 [CA]2 B2 | [CA]4 (AB) (cd) | %4
 [Ee]3 [Fd] [Ec]2 [DB]2 | [CA]3 [Dd] ([Dd][EB])[FA][EG] | [DF]2 [CE]2 D4 | %7
 [DF]2 [DF]2 [DG]2 [DG]2 | [CE]2 [CE]2 [DF]4 | (DE)[DF][CG] [DA]2 [Fd]2 | [Ec]2 B2 [CA]4 | %11
 [DA]3 [Dd] (dc) (BA) | G2 [DF]2 [CE]3 [DF] | (Ad) (BG) [DF]2 [CE]2 | D8 |] %15
V:2
 x4 D2 E2 | x4 D3 x | x6 (ED) | x4 E2 E2 | x8 | x8 | x4 D4 | x8 | x8 | D2 x6 | x2 (ED) x4 | %11
 x4 D2 D2 | (DE) x6 | D2 D2 x4 | D8 |] %15
V:3
 [D,A,]2 [F,A,]2 G,2 [E,B,]2 | A,2 [A,,G,]2 [D,F,]3 [C,E,] | [D,A,]2 [B,,B,]2 [F,A,]2 [E,^G,]2 | %3
 [A,,A,]4 (CB,) ([A,,A,][B,,^G,]) | [C,A,]3 [D,A,] [E,A,]2 (A,^G,) | %5
 [A,,A,]3 [F,A,] (B,C)[F,D][G,B,] | A,2 (A,G,) [D,F,]4 | [D,A,]2 [D,A,]2 [G,,B,]2 [G,,B,]2 | %8
 [A,,A,]2 [A,,A,]2 [D,A,]4 | [G,B,]2 [F,A,][E,G,] F,2 [D,A,]2 | [E,A,]2 [E,^G,]2 [A,,A,]4 | %11
 [F,,A,]3 [F,,A,] (B,A,)[G,,G,][A,,F,] | ([B,,B,][C,A,]) [D,A,]2 [A,,A,]3 [D,A,] | %13
 [F,A,]2 (DA,) A,2 (A,G,) | [D,F,]8 |] %15
V:4
 x4 G,2 x2 | A,2 x6 | x8 | x4 A,,2 x2 | x6 E,2 | x4 G,2 x2 | A,2 A,,2 x4 | x8 | x8 | x4 F,2 x2 | %10
 x8 | x4 G,,2 x2 | x8 | x2 G,2 A,2 A,,2 | x8 |] %15

